modules/hawcons-filled/icons/icon-36-clipboard-download.svg

<?xml version="1.0" encoding="UTF-8" standalone="no"?>
<svg width="32px" height="32px" viewBox="0 0 32 32" version="1.1" xmlns="http://www.w3.org/2000/svg" xmlns:xlink="http://www.w3.org/1999/xlink" xmlns:sketch="http://www.bohemiancoding.com/sketch/ns">
    <!-- Generator: Sketch 3.0.3 (7891) - http://www.bohemiancoding.com/sketch -->
    <title>icon 36 clipboard download</title>
    <desc>Created with Sketch.</desc>
    <defs></defs>
    <g id="Page-1" stroke="none" stroke-width="1" fill="none" fill-rule="evenodd" sketch:type="MSPage">
        <g id="icon-36-clipboard-download" sketch:type="MSArtboardGroup" fill="#929292">
            <path d="M15,24.049999 L11.75,20.799999 L11,21.549999 L15.5,26.049999 L20,21.549999 L19.25,20.799999 L16,24.049999 L16,13 L15,13 L15,24.049999 L15,24.049999 Z M13,5 L13,3.99791312 C13,2.89826062 13.897616,2 15.0048815,2 L15.9951185,2 C17.1061002,2 18,2.89449617 18,3.99791312 L18,5 L20.0044225,5 C20.555163,5 21,5.44724809 21,5.99895656 L21,7.00104344 C21,7.55733967 20.5542648,8 20.0044225,8 L10.9955775,8 C10.444837,8 10,7.55275191 10,7.00104344 L10,5.99895656 C10,5.44266033 10.4457352,5 10.9955775,5 L13,5 L13,5 Z M21.9999942,6 L23.0025781,6 C24.1090746,6 25,6.89703997 25,8.00359486 L25,28.9964051 C25,30.1102368 24.1057238,31 23.0025781,31 L7.99742191,31 C6.89092539,31 6,30.10296 6,28.9964051 L6,8.00359486 C6,6.88976324 6.89427625,6 7.99742191,6 L9.00000577,6 C9.00000192,6.0016267 9,6.00325387 9,6.0048815 L9,6.9951185 C9,8.10238398 9.89354265,9 11.0027601,9 L19.9972399,9 C21.1033337,9 22,8.1061002 22,6.9951185 L22,6.0048815 C22,6.00325388 21.9999981,6.00162671 21.9999942,6 L21.9999942,6 L21.9999942,6 Z M15.5,5 C15.7761424,5 16,4.77614239 16,4.5 C16,4.22385761 15.7761424,4 15.5,4 C15.2238576,4 15,4.22385761 15,4.5 C15,4.77614239 15.2238576,5 15.5,5 L15.5,5 Z" id="clipboard-download" sketch:type="MSShapeGroup"></path>
        </g>
    </g>
</svg>

<svg width="32" height="32" xmlns="http://www.w3.org/2000/svg"><path d="M15 24.05l-3.25-3.25-.75.75 4.5 4.5 4.5-4.5-.75-.75L16 24.05V13h-1v11.05zM13 5V3.998C13 2.898 13.898 2 15.005 2h.99C17.106 2 18 2.894 18 3.998V5h2.004c.551 0 .996.447.996.999v1.002a.994.994 0 0 1-.996.999h-9.008A.997.997 0 0 1 10 7.001V5.999c0-.556.446-.999.996-.999H13zm9 1h1.003C24.109 6 25 6.897 25 8.004v20.992A1.996 1.996 0 0 1 23.003 31H7.997A1.998 1.998 0 0 1 6 28.996V8.004C6 6.89 6.894 6 7.997 6H9v.995C9 8.102 9.894 9 11.003 9h8.994A2.001 2.001 0 0 0 22 6.995v-.99V6zm-6.5-1a.5.5 0 1 0 0-1 .5.5 0 0 0 0 1z" fill="#929292" fill-rule="evenodd"/></svg>
